dist/assets/people.svg

<svg width="40" height="40" viewBox="0 0 40 40" fill="none" xmlns="http://www.w3.org/2000/svg">
<g id="Frame 1000009353">
<rect width="40" height="40" rx="8" fill="#EBE8FD"/>
<g id="group">
<mask id="mask0_0_489" style="mask-type:alpha" maskUnits="userSpaceOnUse" x="10" y="10" width="20" height="20">
<rect id="Bounding box" x="10" y="10" width="20" height="20" fill="#D9D9D9"/>
</mask>
<g mask="url(#mask0_0_489)">
<path id="group_2" d="M10.6787 26.9209V24.4082C10.6787 23.9051 10.8089 23.4427 11.0692 23.0209C11.3295 22.5992 11.6753 22.2774 12.1067 22.0554C12.9778 21.6215 13.8643 21.2953 14.7664 21.0767C15.6684 20.8581 16.5845 20.7488 17.5148 20.7488C18.4514 20.7488 19.3707 20.8573 20.2729 21.0742C21.1751 21.2911 22.0584 21.6166 22.9228 22.0504C23.3542 22.2719 23.7 22.5931 23.9604 23.0139C24.2207 23.4347 24.3508 23.8994 24.3508 24.4079V26.9209H10.6787ZM26.0922 26.9209V24.2565C26.0922 23.6321 25.9237 23.0304 25.5868 22.4512C25.2498 21.8721 24.7639 21.3563 24.1289 20.9037C24.8007 20.9937 25.4358 21.1369 26.0342 21.3333C26.6327 21.5297 27.1961 21.7687 27.7245 22.0504C28.2377 22.3282 28.6321 22.656 28.9076 23.0338C29.1832 23.4117 29.3209 23.8242 29.3209 24.2714V26.9209H26.0922ZM17.5148 19.9155C16.5715 19.9155 15.766 19.5816 15.0983 18.9139C14.4306 18.2462 14.0967 17.4407 14.0967 16.4974C14.0967 15.5542 14.4306 14.7487 15.0983 14.081C15.766 13.4133 16.5715 13.0794 17.5148 13.0794C18.458 13.0794 19.2635 13.4133 19.9312 14.081C20.5989 14.7487 20.9328 15.5542 20.9328 16.4974C20.9328 17.4407 20.5989 18.2462 19.9312 18.9139C19.2635 19.5816 18.458 19.9155 17.5148 19.9155ZM26.0922 16.4974C26.0922 17.4373 25.7576 18.242 25.0884 18.9114C24.4192 19.5808 23.6147 19.9155 22.675 19.9155C22.5184 19.9155 22.3236 19.8973 22.0909 19.8609C21.8581 19.8245 21.6586 19.7822 21.4926 19.7338C21.8742 19.2828 22.1666 18.78 22.3696 18.2255C22.5727 17.6711 22.6742 17.0953 22.6742 16.4982C22.6742 15.9011 22.5727 15.325 22.3696 14.7701C22.1666 14.2151 21.8742 13.7121 21.4926 13.261C21.6903 13.1882 21.8864 13.1398 22.0809 13.1156C22.2753 13.0915 22.4723 13.0794 22.6718 13.0794C23.6124 13.0794 24.4176 13.4141 25.0875 14.0834C25.7573 14.7528 26.0922 15.5574 26.0922 16.4974ZM12.5745 25.0251H22.455V24.4331C22.455 24.2836 22.4168 24.1476 22.3404 24.0253C22.264 23.9029 22.1633 23.8077 22.0383 23.7397C21.3082 23.378 20.5662 23.1051 19.8123 22.9209C19.0584 22.7367 18.2925 22.6446 17.5148 22.6446C16.7436 22.6446 15.9778 22.7367 15.2172 22.9209C14.4566 23.1051 13.7146 23.378 12.9912 23.7397C12.8662 23.8077 12.7655 23.9029 12.6891 24.0253C12.6127 24.1476 12.5745 24.2836 12.5745 24.4331V25.0251ZM17.514 18.0943C17.9529 18.0943 18.3289 17.9381 18.642 17.6255C18.9551 17.3129 19.1117 16.9372 19.1117 16.4982C19.1117 16.0593 18.9554 15.6833 18.6428 15.3702C18.3302 15.0571 17.9545 14.9005 17.5155 14.9005C17.0766 14.9005 16.7006 15.0568 16.3875 15.3694C16.0744 15.682 15.9178 16.0577 15.9178 16.4966C15.9178 16.9356 16.0741 17.3116 16.3867 17.6247C16.6993 17.9378 17.075 18.0943 17.514 18.0943Z" fill="#6548EE"/>
</g>
</g>
</g>
</svg>

<svg xmlns="http://www.w3.org/2000/svg" width="40" height="40" fill="none"><rect width="40" height="40" fill="#EBE8FD" rx="8"/><mask id="a" width="20" height="20" x="10" y="10" maskUnits="userSpaceOnUse" style="mask-type:alpha"><path fill="#D9D9D9" d="M10 10h20v20H10z"/></mask><g mask="url(#a)"><path fill="#6548EE" d="M10.679 26.92v-2.512c0-.503.13-.965.39-1.387.26-.422.606-.744 1.038-.966.87-.433 1.757-.76 2.66-.978a11.757 11.757 0 0 1 5.506-.002c.902.216 1.785.542 2.65.975.431.222.777.543 1.037.964.26.42.39.885.39 1.394v2.513H10.68Zm15.413 0v-2.664c0-.624-.168-1.226-.505-1.805-.337-.579-.823-1.095-1.458-1.547a10.62 10.62 0 0 1 3.595 1.146c.514.278.908.606 1.184.984.275.378.413.79.413 1.237v2.65h-3.229Zm-8.577-7.005a3.293 3.293 0 0 1-2.417-1.001 3.293 3.293 0 0 1-1.001-2.417c0-.943.334-1.748 1.001-2.416a3.293 3.293 0 0 1 2.417-1.002c.943 0 1.748.334 2.416 1.002a3.293 3.293 0 0 1 1.002 2.416c0 .944-.334 1.75-1.002 2.417a3.293 3.293 0 0 1-2.416 1.002Zm8.577-3.418c0 .94-.334 1.745-1.004 2.414a3.29 3.29 0 0 1-2.413 1.005 3.9 3.9 0 0 1-.584-.055 4.844 4.844 0 0 1-.598-.127 4.982 4.982 0 0 0 1.182-3.236 4.989 4.989 0 0 0-1.182-3.237c.197-.073.393-.121.588-.145.194-.024.391-.037.59-.037.941 0 1.747.335 2.416 1.004.67.67 1.005 1.474 1.005 2.414Zm-13.517 8.528h9.88v-.592a.754.754 0 0 0-.115-.408.804.804 0 0 0-.302-.285 10.758 10.758 0 0 0-2.226-.82 9.728 9.728 0 0 0-4.595 0c-.76.185-1.502.458-2.226.82a.804.804 0 0 0-.302.285.754.754 0 0 0-.114.408v.592Zm4.939-6.93a1.54 1.54 0 0 0 1.128-.47c.313-.312.47-.688.47-1.127a1.54 1.54 0 0 0-.47-1.128 1.536 1.536 0 0 0-1.127-.47 1.54 1.54 0 0 0-1.128.47c-.313.312-.47.688-.47 1.127 0 .439.157.815.47 1.128.312.313.688.47 1.127.47Z"/></g></svg>
